src/icons/logos/stackblitz.svg

<svg xmlns="http://www.w3.org/2000/svg" width="99" height="20" viewBox="0 0 99 20" fill="currentColor">
<path d="M6.00084 11.8188H0L10.9693 0L8.01714 8.18289H14.0187L3.04798 20L6.00084 11.8188Z" />
<path d="M25.0161 13.1569L27.2453 11.8647C27.6492 12.8017 28.3438 13.4316 29.6198 13.4316C30.8476 13.4316 31.1544 12.9471 31.1544 12.5108C31.1544 11.8163 30.5083 11.5418 28.8121 11.0732C27.1322 10.6046 25.4845 9.79716 25.4845 7.63244C25.4845 5.45177 27.326 4.19168 29.2807 4.19168C31.1384 4.19168 32.592 5.08015 33.416 6.74398L31.2354 8.02002C30.8476 7.21234 30.3146 6.71166 29.2807 6.71166C28.473 6.71166 28.0691 7.1154 28.0691 7.56781C28.0691 8.08465 28.3438 8.44012 30.1045 8.97312C31.8168 9.48996 33.739 10.0878 33.739 12.4785C33.739 14.6592 31.9946 15.9514 29.5392 15.9514C27.1645 15.9514 25.6461 14.8206 25.0161 13.1569Z" />
<path d="M37.778 9.97469V12.834C37.778 13.5286 38.3759 13.593 39.4421 13.5286V15.7254C36.276 16.0485 35.3552 15.0954 35.3552 12.834V9.97469H34.063V7.6486H35.3552V6.11404L37.7782 5.38715V7.6486H39.4423V9.97469H37.778Z" />
<path d="M48.9398 7.64859V15.7254H46.5168V14.9662C45.9838 15.58 45.192 15.9514 44.1097 15.9514C41.9936 15.9514 40.249 14.0939 40.249 11.6868C40.249 9.2799 41.9936 7.42218 44.1097 7.42218C45.192 7.42218 45.9836 7.79381 46.5168 8.40759V7.64839H48.9398V7.64859ZM46.517 11.6868C46.517 10.4754 45.7093 9.71616 44.5948 9.71616C43.4801 9.71616 42.6725 10.4754 42.6725 11.6868C42.6725 12.8984 43.4801 13.6576 44.5948 13.6576C45.7091 13.6576 46.517 12.8984 46.517 11.6868Z" />
<path d="M50.3135 11.6868C50.3135 9.2799 52.1387 7.42218 54.5942 7.42218C56.1609 7.42218 57.5503 8.24602 58.245 9.48975L56.1286 10.7175C55.8541 10.152 55.2724 9.8129 54.5619 9.8129C53.5121 9.8129 52.7367 10.5721 52.7367 11.6866C52.7367 12.8012 53.5121 13.5605 54.5619 13.5605C55.2726 13.5605 55.8701 13.2211 56.1286 12.6558L58.245 13.8674C57.5505 15.1273 56.1775 15.9512 54.5942 15.9512C52.1387 15.9514 50.3135 14.0939 50.3135 11.6868Z" />
<path d="M64.2222 15.7252L61.6376 12.1551V15.7252H59.2144V4.41788H61.6376V11.1861L64.0608 7.64859H66.8874L63.9477 11.687L66.9682 15.7254H64.2222V15.7252Z" />
<path d="M76.3382 12.4137C76.3382 14.4168 74.7067 15.7252 72.6874 15.7252H67.9385V4.41788H72.3642C74.3353 4.41788 75.9343 5.69392 75.9343 7.64859C75.9343 8.58553 75.5628 9.32858 74.9489 9.86157C75.7888 10.3946 76.3382 11.2667 76.3382 12.4137ZM70.5231 6.84091V8.84385H72.3642C72.9459 8.84385 73.3497 8.42395 73.3497 7.84248C73.3497 7.26101 72.9621 6.84112 72.3642 6.84112H70.5231V6.84091ZM73.7536 12.22C73.7536 11.59 73.3337 11.1378 72.6874 11.1378H70.5231V13.3023H72.6874C73.3337 13.3023 73.7536 12.8499 73.7536 12.22Z" />
<path d="M77.5498 3.93314H79.9726V15.7252H77.5498V3.93314Z" />
<path d="M81.5078 5.48384C81.5078 4.69232 82.1701 4.03006 82.9614 4.03006C83.7531 4.03006 84.4154 4.69232 84.4154 5.48384C84.4154 6.27536 83.7531 6.93762 82.9614 6.93762C82.1703 6.93762 81.5078 6.27536 81.5078 5.48384ZM81.75 7.64856H84.1732V15.7253H81.75V7.64856Z" />
<path d="M89.019 9.97469V12.834C89.019 13.5286 89.6171 13.593 90.6833 13.5286V15.7254C87.5172 16.0485 86.5964 15.0954 86.5964 12.834V9.97469H85.3042V7.6486H86.5964V6.11404L89.0192 5.38715V7.6486H90.6835V9.97469H89.019Z" />
<path d="M98.2754 13.4639V15.7254H91.814V14.1098L94.8667 9.91005H91.9753V7.64859H98.1136V9.26395L95.0608 13.4639H98.2754Z" />
</svg>

<svg xmlns="http://www.w3.org/2000/svg" width="99" height="20" fill="currentColor">
    <path
        d="M6 11.819H0L10.97 0 8.016 8.183h6.002L3.048 20l2.953-8.181ZM25.016 13.157l2.23-1.292c.403.937 1.098 1.567 2.374 1.567 1.228 0 1.534-.485 1.534-.921 0-.695-.646-.97-2.342-1.438-1.68-.468-3.328-1.276-3.328-3.44 0-2.181 1.842-3.441 3.797-3.441 1.857 0 3.311.888 4.135 2.552l-2.18 1.276c-.388-.808-.921-1.308-1.955-1.308-.808 0-1.212.403-1.212.856 0 .517.275.872 2.036 1.405 1.712.517 3.634 1.115 3.634 3.505 0 2.181-1.744 3.473-4.2 3.473-2.375 0-3.893-1.13-4.523-2.794ZM37.778 9.975v2.859c0 .695.598.759 1.664.695v2.196c-3.166.324-4.087-.63-4.087-2.891v-2.86h-1.292V7.65h1.292V6.114l2.423-.727V7.65h1.664v2.326h-1.664ZM48.94 7.649v8.076h-2.423v-.759c-.533.614-1.325.985-2.407.985-2.116 0-3.861-1.857-3.861-4.264s1.745-4.265 3.86-4.265c1.083 0 1.875.372 2.408.986v-.76h2.423Zm-2.423 4.038c0-1.212-.808-1.97-1.922-1.97-1.115 0-1.922.758-1.922 1.97 0 1.211.807 1.97 1.922 1.97 1.114 0 1.922-.759 1.922-1.97ZM50.313 11.687c0-2.407 1.826-4.265 4.281-4.265 1.567 0 2.956.824 3.651 2.068l-2.116 1.227c-.275-.565-.857-.904-1.567-.904-1.05 0-1.825.76-1.825 1.874s.775 1.873 1.825 1.873c.71 0 1.308-.339 1.567-.904l2.116 1.211c-.694 1.26-2.067 2.084-3.65 2.084-2.456 0-4.282-1.857-4.282-4.264ZM64.222 15.725l-2.584-3.57v3.57h-2.424V4.418h2.424v6.768L64.06 7.65h2.826l-2.94 4.038 3.021 4.038h-2.746ZM76.338 12.414c0 2.003-1.631 3.311-3.65 3.311h-4.75V4.418h4.426c1.971 0 3.57 1.276 3.57 3.23 0 .938-.371 1.68-.985 2.214.84.533 1.39 1.405 1.39 2.552ZM70.523 6.84v2.003h1.841c.582 0 .986-.42.986-1.002 0-.581-.388-1-.986-1h-1.84V6.84Zm3.23 5.379c0-.63-.42-1.082-1.066-1.082h-2.164v2.164h2.164c.647 0 1.067-.452 1.067-1.082ZM77.55 3.933h2.423v11.792H77.55V3.933ZM81.508 5.484c0-.792.662-1.454 1.453-1.454.792 0 1.454.662 1.454 1.454 0 .791-.662 1.454-1.454 1.454a1.469 1.469 0 0 1-1.453-1.454Zm.242 2.165h2.423v8.076H81.75V7.65ZM89.019 9.975v2.859c0 .695.598.759 1.664.695v2.196c-3.166.324-4.087-.63-4.087-2.891v-2.86h-1.292V7.65h1.292V6.114l2.423-.727V7.65h1.664v2.326H89.02ZM98.275 13.464v2.261h-6.461V14.11l3.053-4.2h-2.892V7.649h6.139v1.615l-3.053 4.2h3.214Z" />
</svg>
